X: 1
T: Caroline's Polka
C:\251 George Meikle
R: polka
B: George Meikle "Originally Mine" p.2
Z: 2010 John Chambers <jc:trillian.mit.edu>
M: 4/4
L: 1/8
K: D
(3ABc |:\
"D"d2A2 "F#/D7"A^GA^A | "G"B2G2 "Em"G3B | "A7"A2E2 "C#/A7"E^DEG | "D"F2D2 "A7"DABc |
"D"d2A2 "F#/D7"A^GA^A | "G"B2G2 "Em"G3B | "A7"AAAA "C#/A7"ABAG |1 "D"F2D2 "A7"DABc :|1 "D"F2D2 "F#/D7"D3B ||[K:G]
|:"G"DBBB "B/G7"DBBB | "C"Eccc "Am"Eccc | "D"Fddc "F#/D7"cBBA | "G"AGGF "F#/D7"FEE_E |
| "G"DBBB "B/G7"DBBB | "C"Eccc "Am"Eccc | "D"Fddc "F#/D7"cBBA |1 "G"B2G2 G2GE :|2 "G"B2G2 "A7"G3A |][K:D]
"D"A4 "F#/D7"FDFA | "G"B2B2 "A7"A3G | "D"FAAA "Bm"DFFA | "Em"G2F2 "A7"E3A |
"D"A4 "F#/D7"FDFA | "G"B2B2 "A7"A3G | "Bm"DDDE "F#m"FAGF | "Em"E2-"A7"E2 "D"D3"A7"A |[K:Dm]
"Dm"A4 "A/Dm"FDFA | "Gm"B2B2 "A7"A3G | "Dm"FAAA "F/Dm"DFFA | "Bb/Gm"G2F2 "A7"E3A |
"Dm"A4 "A/Dm"FDFA | "Gm"B2B2 "A7"A3G | "Bb"DDDE "A/F"FAGF | "E/A7"E4 "Dm"DA=B^c |][K:D]
|:"D"d2A2 "F#/D7"A^GA^A | "G"B2G2 "Em"G3B | "A7"A2E2 "C#/A7"E^DEG | "D"F2D2 "A7"DABc | "D"d2A2 "F#/D7"A^GA^A |
"G"B2G2 "Em"G3B |1 "A7"AAAA "C#/A7"ABAG | "D"F2D2 "A7"DABc \
               :|2 "A7"AAAA "C#/A7"ABcA | "D"d2"G"[d2B2G2] "D"[d2A2F2] |]
%%begintext align
Composed in the early days of the Lothian Scottish Dance Band and is dedicated to my wife Caroline.
%%endtext

%%sep 1 1 500
%%sep 1 1 500

